X: 1
T: Archibald McDonald Of Keppoch
R: waltz
M: 3/4
L: 1/8
K: Dmin
|:DE|F3GA2|f3ed2|c3AF2|G4DE|F3GA2|f3ed2|Ad3^c2|d4:|
de|f3ed2|c3BA2|B3AG2|A4DE|F3GA2|f3ed2|Ad3^c2|d4fg|
a3gf2|Af3d2|c3AF2|G4DE|F3GA2|f3ga2|Ad3^c2|d4z2|


Tune 6999	Setting 23082

